images/ICONOS/CONTACTANOS/LINKEDIN.svg

<svg width="27" height="27" viewBox="0 0 27 27" fill="none" xmlns="http://www.w3.org/2000/svg">
<circle cx="13.5" cy="13.5" r="13.5" fill="white"/>
<path d="M17.9242 20.52H20.2073C20.29 20.52 20.3694 20.4871 20.4279 20.4285C20.4864 20.3699 20.5193 20.2904 20.5193 20.2075L20.5205 15.3754C20.5205 12.8498 19.9772 10.9085 17.0309 10.9085C15.9109 10.8667 14.8547 11.4451 14.2848 12.4109C14.282 12.4156 14.2777 12.4192 14.2727 12.4213C14.2676 12.4233 14.262 12.4236 14.2568 12.4222C14.2515 12.4208 14.2469 12.4177 14.2435 12.4134C14.2402 12.409 14.2384 12.4037 14.2383 12.3983V11.4542C14.2383 11.3713 14.2055 11.2918 14.147 11.2332C14.0885 11.1745 14.0091 11.1416 13.9263 11.1416H11.7597C11.677 11.1416 11.5976 11.1745 11.5391 11.2332C11.4806 11.2918 11.4477 11.3713 11.4477 11.4542V20.207C11.4477 20.2899 11.4806 20.3694 11.5391 20.428C11.5976 20.4867 11.677 20.5196 11.7597 20.5196H14.0426C14.1254 20.5196 14.2048 20.4867 14.2633 20.428C14.3218 20.3694 14.3546 20.2899 14.3546 20.207V15.8804C14.3546 14.657 14.5863 13.4722 16.1004 13.4722C17.5929 13.4722 17.6122 14.8721 17.6122 15.9596V20.2074C17.6122 20.2903 17.6451 20.3698 17.7036 20.4284C17.7621 20.4871 17.8415 20.52 17.9242 20.52ZM6.48047 8.16984C6.48047 9.09694 7.24229 9.85971 8.16776 9.85971C9.093 9.85963 9.85436 9.09639 9.85436 8.16953C9.8542 7.24267 9.09277 6.47998 8.16745 6.47998C7.2419 6.47998 6.48047 7.24283 6.48047 8.16984ZM7.02327 20.52H9.30922C9.39196 20.52 9.47132 20.4871 9.52983 20.4284C9.58835 20.3698 9.62122 20.2903 9.62122 20.2074V11.4542C9.62122 11.3713 9.58835 11.2918 9.52983 11.2332C9.47132 11.1745 9.39196 11.1416 9.30922 11.1416H7.02327C6.94052 11.1416 6.86116 11.1745 6.80265 11.2332C6.74414 11.2918 6.71127 11.3713 6.71127 11.4542V20.2074C6.71127 20.2903 6.74414 20.3698 6.80265 20.4284C6.86116 20.4871 6.94052 20.52 7.02327 20.52Z" fill="#30E35E"/>
</svg>

<svg width="27" height="27" fill="none" xmlns="http://www.w3.org/2000/svg"><circle cx="13.5" cy="13.5" r="13.5" fill="#fff"/><path d="M17.924 20.52h2.283a.312.312 0 0 0 .312-.313l.002-4.832c0-2.525-.544-4.466-3.49-4.466a3.06 3.06 0 0 0-2.746 1.502.026.026 0 0 1-.012.01.026.026 0 0 1-.03-.008.026.026 0 0 1-.005-.015v-.944a.313.313 0 0 0-.312-.312H11.76a.311.311 0 0 0-.312.312v8.753a.313.313 0 0 0 .312.313h2.283a.311.311 0 0 0 .312-.313V15.88c0-1.223.231-2.408 1.745-2.408 1.493 0 1.512 1.4 1.512 2.488v4.247a.313.313 0 0 0 .312.313ZM6.48 8.17c0 .927.762 1.69 1.688 1.69.925 0 1.686-.764 1.686-1.69 0-.927-.761-1.69-1.687-1.69-.925 0-1.687.763-1.687 1.69Zm.543 12.35H9.31a.311.311 0 0 0 .312-.313v-8.753a.313.313 0 0 0-.312-.312H7.023a.311.311 0 0 0-.312.312v8.753a.313.313 0 0 0 .312.313Z" fill="#30E35E"/></svg>
